X:91
M:6/8
L:1/8
K:D
|:(f>gf/e/) (f>gf/e/)|(f>gf/e/) f2A|Bcd ABc|dAG FED|DED FAd|EFE GBe|ABc def|edc d3:|

